projects/notary/stacked/white/notary-stacked-white.svg

<svg xmlns="http://www.w3.org/2000/svg" role="img" viewBox="0.05 -0.20 257.65 426.40"><defs><style>.cls-1{fill:#fff}</style></defs><path d="M176.2 405.5h7.6v-30.4h22.8v-7.6h-30.4v38z" class="cls-1"/><path d="M242.1 367.5v30.4h-22.8v-30.4h-7.6v38h30.4v5.1H59.5v7.6h190.2v-50.7h-7.6z" class="cls-1"/><path d="M59.5 367.5v38h38v-38h-38zm30.4 30.4H67.1v-22.8h22.8zM8.8 367.5v50.7h45.6v-63.4H8.8zm7.6 0h30.4v38h-7.6v-30.4H24v30.4h-7.6zm116.7 15.2v22.8h38v-30.4h-.1v-7.6h-53.2v-12.7h-7.6v12.7h-7.6v7.6h7.6v30.4h15.2v-7.6h-7.6v-22.8h45.7v7.6zm30.4 15.2h-22.8v-7.6h22.8zm85.4-122.5V8.2H8.4v334h240.5zm-40.1 0h-40.1V115.1H88.6v160.3H48.5V75h160.3z" class="cls-1"/></svg>

<svg xmlns="http://www.w3.org/2000/svg" role="img" viewBox="0.05 -0.20 257.65 426.40"><defs><style>.cls-1{fill:#fff}</style></defs><path d="M176.2 405.5L183.8 405.5 183.8 375.1 206.6 375.1 206.6 367.5 176.2 367.5 176.2 375.1 176.2 405.5z" class="cls-1"/><path d="M242.1 367.5L242.1 397.9 219.3 397.9 219.3 367.5 211.7 367.5 211.7 405.5 242.1 405.5 242.1 410.6 59.5 410.6 59.5 418.2 249.7 418.2 249.7 367.5 242.1 367.5z" class="cls-1"/><path d="M59.5 367.5v38h38v-38h-38zm30.4 30.4H67.1V375.1H89.9zM8.8 367.5v50.7H54.4V354.8H8.8zm7.6 0H46.8v38H39.2V375.1H24v30.4H16.4zM133.1 382.7v22.8h38V375.1H171v-7.6H117.8v-12.7h-7.6v12.7h-7.6v7.6h7.6v30.4h7.6V405.5h7.6v-7.6h-7.6V375.1h45.7v7.6zm30.4 15.2H140.7v-7.6h22.8zM248.9 275.4H248.9V75H248.9V8.2H8.4v334H248.9zm-40.1 0H168.7V115.1H88.6V275.4H48.5V75H208.8z" class="cls-1"/></svg>
